assets/img/gm-white.svg

<svg fill="none" height="54" viewBox="0 0 138 54" width="138" xmlns="http://www.w3.org/2000/svg"><rect height="49.3395" rx="14.163" stroke="#fff" stroke-width="3.80499" width="133.491" x="2.0975" y="2.72055"/><g fill="#fff"><path d="m26.8795 26.8149c0-.7687.6232-1.392 1.392-1.392h13.9144c.7688 0 1.3941.6234 1.3761 1.392-.0284 1.2094-.0946 2.3339-.1987 3.3734-.1431 1.4281-.4293 2.7543-.8586 3.9784-.6009 1.7196-1.4166 3.2497-2.4468 4.5904-1.0302 1.3116-2.2465 2.4191-3.6487 3.3227-1.3737.8743-2.8904 1.5447-4.5502 2.011-1.6599.4664-3.4055.6995-5.2371.6995-2.5183 0-4.8221-.4226-6.9111-1.2678-2.0605-.8452-3.8348-2.0257-5.3229-3.5412-1.4881-1.5448-2.6472-3.3809-3.4771-5.5086-.8299-2.1568-1.24485-4.5322-1.24485-7.1261 0-2.5649.40065-4.9111 1.20195-7.0388.8299-2.1567 1.9889-3.9929 3.477-5.5085 1.5168-1.5156 3.334-2.696 5.4517-3.5412 2.1177-.8453 4.4787-1.26787 7.0829-1.26787 3.3769 0 6.3388.74327 8.8858 2.22967 2.1812 1.273 3.9742 3.1446 5.3788 5.6147.3926.6902.0621 1.5507-.6696 1.8592l-5.3474 2.2546c-.7127.3005-1.5233-.0443-1.8981-.7207-.6432-1.1608-1.4146-2.0358-2.3144-2.6249-1.1734-.7869-2.5184-1.1804-4.0351-1.1804-1.2592 0-2.4039.2478-3.4341.7432-1.0303.4664-1.9174 1.1513-2.6615 2.0548-.7154.8744-1.2878 1.9382-1.717 3.1915-.4007 1.2532-.601 2.6522-.601 4.197 0 1.399.1717 2.696.5151 3.8909.372 1.195.9158 2.2297 1.6312 3.1041.7155.8743 1.6026 1.5593 2.6615 2.0547 1.0588.4664 2.2894.6995 3.6916.6995.8299 0 1.6312-.0874 2.4039-.2623.7727-.204 1.4595-.51 2.0605-.9181.6296-.4371 1.1447-.9909 1.5453-1.6613.1622-.2712.3032-.5663.4231-.8853.2994-.796-.3715-1.5629-1.2219-1.5629h-3.9047c-.7688 0-1.392-.6232-1.392-1.392z"/><path d="m47.1647 43.8724c-.8602 0-1.5145-.7724-1.373-1.6209l5.0305-30.1799c.1119-.6712.6926-1.1632 1.3731-1.1632h6.1782c.5831 0 1.1043.3634 1.3061.9104l4.8358 13.1117c.4481 1.2152 2.1675 1.2133 2.613-.0028l4.8017-13.1061c.201-.5485.723-.9132 1.3071-.9132h6.176c.6805 0 1.2612.492 1.3731 1.1632l5.0306 30.1799c.1414.8485-.5129 1.6209-1.3731 1.6209h-5.5252c-.6905 0-1.2767-.5063-1.3772-1.1895l-1.8673-12.6981c-.2066-1.4052-2.1379-1.635-2.6684-.3175l-5.3693 13.333c-.2122.5269-.7232.8721-1.2912.8721h-1.4502c-.577 0-1.0941-.356-1.3002-.8949l-5.01-13.1035c-.5119-1.3388-2.4689-1.1235-2.6774.2946l-1.8403 12.5143c-.1005.6832-.6867 1.1895-1.3772 1.1895z"/><path clip-rule="evenodd" d="m87.1818 18.8481c0-4.6127 3.7394-8.352 8.352-8.352h24.0852c4.613 0 8.352 3.7393 8.352 8.352v6.0264c0 2.8532-2.313 5.1662-5.166 5.1662s-5.166 2.313-5.166 5.1663v1.7013c0 3.7929-3.075 6.8676-6.868 6.8676h-6.659c-3.793 0-6.868-3.0747-6.868-6.8676v-1.8365c0-2.7786-2.2525-5.0311-5.0311-5.0311s-5.0311-2.2525-5.0311-5.0311zm16.4702 1.9667c0 3.5489-2.627 6.4259-5.8687 6.4259-3.2414 0-5.8691-2.877-5.8691-6.4259s2.6277-6.4259 5.8691-6.4259c3.2417 0 5.8687 2.877 5.8687 6.4259zm13.632 6.4259c3.241 0 5.869-2.877 5.869-6.4259s-2.628-6.4259-5.869-6.4259c-3.242 0-5.869 2.877-5.869 6.4259s2.627 6.4259 5.869 6.4259zm-15.486 3.1371c0-.8065.653-1.4603 1.46-1.4603h.639c1.614 0 2.921 1.3076 2.921 2.9207v.6395c0 .8066-.654 1.4604-1.46 1.4604h-.64c-1.613 0-2.92-1.3077-2.92-2.9208zm9.405-1.4895c-1.613 0-2.92 1.3077-2.92 2.9208v.6395c0 .8065.653 1.4604 1.46 1.4604h.639c1.614 0 2.921-1.3077 2.921-2.9208v-.6395c0-.8065-.654-1.4604-1.46-1.4604z" fill-rule="evenodd"/></g></svg>

<svg width="138" height="54" viewBox="0 0 138 54" fill="none" xmlns="http://www.w3.org/2000/svg">
<rect x="2.0975" y="2.72055" width="133.491" height="49.3395" rx="14.163" stroke="white" stroke-width="3.80499"/>
<path d="M26.8795 26.8149C26.8795 26.0462 27.5027 25.4229 28.2715 25.4229H42.1859C42.9547 25.4229 43.58 26.0463 43.562 26.8149C43.5336 28.0243 43.4674 29.1488 43.3633 30.1883C43.2202 31.6164 42.934 32.9426 42.5047 34.1667C41.9038 35.8863 41.0881 37.4164 40.0579 38.7571C39.0277 40.0687 37.8114 41.1762 36.4092 42.0798C35.0355 42.9541 33.5188 43.6245 31.859 44.0908C30.1991 44.5572 28.4535 44.7903 26.6219 44.7903C24.1036 44.7903 21.7998 44.3677 19.7108 43.5225C17.6503 42.6773 15.876 41.4968 14.3879 39.9813C12.8998 38.4365 11.7407 36.6004 10.9108 34.4727C10.0809 32.3159 9.66595 29.9405 9.66595 27.3466C9.66595 24.7817 10.0666 22.4355 10.8679 20.3078C11.6978 18.1511 12.8568 16.3149 14.3449 14.7993C15.8617 13.2837 17.6789 12.1033 19.7966 11.2581C21.9143 10.4128 24.2753 9.99023 26.8795 9.99023C30.2564 9.99023 33.2183 10.7335 35.7653 12.2199C37.9465 13.4929 39.7395 15.3645 41.1441 17.8346C41.5367 18.5248 41.2062 19.3853 40.4745 19.6938L35.1271 21.9484C34.4144 22.2489 33.6038 21.9041 33.229 21.2277C32.5858 20.0669 31.8144 19.1919 30.9146 18.6028C29.7412 17.8159 28.3962 17.4224 26.8795 17.4224C25.6203 17.4224 24.4756 17.6702 23.4454 18.1656C22.4151 18.632 21.528 19.3169 20.7839 20.2204C20.0685 21.0948 19.4961 22.1586 19.0669 23.4119C18.6662 24.6651 18.4659 26.0641 18.4659 27.6089C18.4659 29.0079 18.6376 30.3049 18.981 31.4998C19.353 32.6948 19.8968 33.7295 20.6122 34.6039C21.3277 35.4782 22.2148 36.1632 23.2737 36.6586C24.3325 37.125 25.5631 37.3581 26.9653 37.3581C27.7952 37.3581 28.5965 37.2707 29.3692 37.0958C30.1419 36.8918 30.8287 36.5858 31.4297 36.1777C32.0593 35.7406 32.5744 35.1868 32.975 34.5164C33.1372 34.2452 33.2782 33.9501 33.3981 33.6311C33.6975 32.8351 33.0266 32.0682 32.1762 32.0682H28.2715C27.5027 32.0682 26.8795 31.445 26.8795 30.6762V26.8149Z" fill="white"/>
<path d="M47.1647 43.8724C46.3045 43.8724 45.6502 43.1 45.7917 42.2515L50.8222 12.0716C50.9341 11.4004 51.5148 10.9084 52.1953 10.9084H58.3735C58.9566 10.9084 59.4778 11.2718 59.6796 11.8188L64.5154 24.9305C64.9635 26.1457 66.6829 26.1438 67.1284 24.9277L71.9301 11.8216C72.1311 11.2731 72.6531 10.9084 73.2372 10.9084H79.4132C80.0937 10.9084 80.6744 11.4004 80.7863 12.0716L85.8169 42.2515C85.9583 43.1 85.304 43.8724 84.4438 43.8724H78.9186C78.2281 43.8724 77.6419 43.3661 77.5414 42.6829L75.6741 29.9848C75.4675 28.5796 73.5362 28.3498 73.0057 29.6673L67.6364 43.0003C67.4242 43.5272 66.9132 43.8724 66.3452 43.8724H64.895C64.318 43.8724 63.8009 43.5164 63.5948 42.9775L58.5848 29.874C58.0729 28.5352 56.1159 28.7505 55.9074 30.1686L54.0671 42.6829C53.9666 43.3661 53.3804 43.8724 52.6899 43.8724H47.1647Z" fill="white"/>
<path fill-rule="evenodd" clip-rule="evenodd" d="M87.1818 18.8481C87.1818 14.2354 90.9212 10.4961 95.5338 10.4961H119.619C124.232 10.4961 127.971 14.2354 127.971 18.8481V24.8745C127.971 27.7277 125.658 30.0407 122.805 30.0407C119.952 30.0407 117.639 32.3537 117.639 35.207V36.9083C117.639 40.7012 114.564 43.7759 110.771 43.7759H104.112C100.319 43.7759 97.244 40.7012 97.244 36.9083V35.0718C97.244 32.2932 94.9915 30.0407 92.2129 30.0407C89.4343 30.0407 87.1818 27.7882 87.1818 25.0096V18.8481ZM103.652 20.8148C103.652 24.3637 101.025 27.2407 97.7833 27.2407C94.5419 27.2407 91.9142 24.3637 91.9142 20.8148C91.9142 17.2659 94.5419 14.3889 97.7833 14.3889C101.025 14.3889 103.652 17.2659 103.652 20.8148ZM117.284 27.2407C120.525 27.2407 123.153 24.3637 123.153 20.8148C123.153 17.2659 120.525 14.3889 117.284 14.3889C114.042 14.3889 111.415 17.2659 111.415 20.8148C111.415 24.3637 114.042 27.2407 117.284 27.2407ZM101.798 30.3778C101.798 29.5713 102.451 28.9175 103.258 28.9175H103.897C105.511 28.9175 106.818 30.2251 106.818 31.8382V32.4777C106.818 33.2843 106.164 33.9381 105.358 33.9381H104.718C103.105 33.9381 101.798 32.6304 101.798 31.0173V30.3778ZM111.203 28.8883C109.59 28.8883 108.283 30.196 108.283 31.8091V32.4486C108.283 33.2551 108.936 33.909 109.743 33.909H110.382C111.996 33.909 113.303 32.6013 113.303 30.9882V30.3487C113.303 29.5422 112.649 28.8883 111.843 28.8883H111.203Z" fill="white"/>
</svg>
